X:1
T:Gadara, LM
T:Gadara, LM
T:Lowell Mason, 1839
T:Public Domain Courtesy of the Cyber Hymnal™
C:Lowell Mason, 1839
Z:Public Domain
Z:Courtesy of the Cyber Hymnal™
%%score ( 1 2 ) ( 3 4 )
L:1/8
Q:1/4=130
M:3/2
K:C
V:1 treble 
V:2 treble 
V:3 bass 
V:4 bass 
V:1
 [CE]2 [CE]2 [CE]2 | [CE]6 [EA]2 [EA]2 [E^G]2 | [EA]6 [FA]2 [FA]2 [FA]2 | G2 [Ec]2 [Ec]4 [DB]4 | %4
 !fermata![Ec]4 z2 [FA]2 [FA]2 [FA]2 | [FA]6 [CF]2 [CF]2 [CF]2 | [DF]6 [_B,D]2 [B,D]2 [B,D]2 | %7
 C2 [CF]2 [DF]4 [EG]4 | !fermata![FA]8 |] %9
V:2
 x6 | x12 | x12 | G2 x10 | x12 | x12 | x12 | C2 x10 | x8 |] %9
V:3
 [A,,A,]2 [A,,A,]2 [A,,A,]2 | [A,,A,]6 [A,,C]2 [E,C]2 [E,B,]2 | [A,,C]6 [F,C]2 [F,C]2 [F,B,]2 | %3
 [E,B,]2 [C,G,]2 G,4 [G,,G,]4 | !fermata![C,G,]4 z2 [F,C]2 [F,C]2 [F,C]2 | %5
 [F,C]6 [A,,F,]2 [A,,F,]2 [A,,F,]2 | [_B,,F,]6 [B,,F,]2 [B,,F,]2 [B,,F,]2 | %7
 [A,,F,]2 [F,,A,]2 [D,A,]4 [C,C]4 | !fermata![F,C]8 |] %9
V:4
 x6 | x12 | x12 | x4 G,4 x4 | x12 | x12 | x12 | x12 | x8 |] %9

